X:1
T:Franklin D. Roosevelt's Back Again
M:4/4
L:1/8
K:C
 z4 z2 z G| EG GG A G2 G| Ac cc A G3| E3/2 G/2 GG AG GE| D6 z D| EG G G/2G/2 A G3|\
 Ac cc AG EG| G2 G3/2 A/2 GF ED| C6 G3/2 E/2| G6 c3/2 A/2| c6 BA| G2 GG AG GE|\
 D6 z D| EG GG AG GG| Ac cc AG EG| GGG-A GF ED| C6 z2|
